X: 40744
T: Toss The Fiddles
R: polka
M: 2/4
K: Dmajor
|:F2 EF|D4|Ad cA|G4|F2 EF|D4|Ad dc|1 d4:|2 d3 A|
B2 Bd|c2 BA|B2 Bd|c2 BA|Ad dc|d2 (3efg|fd dc|B3 A|
B2 Bd|c2 BA|B2 Bd|c2 BA|Ad dg|gf ae|ed dc|d4||

